X: 1
T: the Piper's Cave  #2
C: P/M James Sutherland
R: march
Z: 2014 John Chambers <jc:trillian.mit.edu>
S: handwritten page from Concord Slow Scottish Session collection "arr. A. Hooper"
M: 2/4
L: 1/16
K: A
"A"[|] cB |\
"A"A3B A3B | "F#m"c2f2 "D"f2(af) | "A"e2c2 "F#m"dcBA | "D"c2B2- "E7"B2cB |\
"A"A3B A3B | "F#m"c2f2- "D"f2af | "A"e2c2 "E7"BABc | "A"A4 A2 "B":|
fg |\
"D"a2f2 f2(ef) | "A"a2c2 c3f | "A"e2c2 dcBA | "E"c2B2- B2fg |\
"D"a2f2 f2(ef) | "A"a2c2 c3f | "D"e2c2 "E7"BABc | "A"A4 A2 |]
fg |\
"D"a2f2 f2(ef) | "A"a2c2 c3f | "A"e2c2 "F#m"dcBA | "D"c2B2- "E7"B2cB |\
"A"A3B A3B | "F#m"c2f2- "D"f2af | "A"e2c2 "E7"BABc | "A"A4 A2 |]
